WorldWind/resources/milstd2525/tacgrp/g-gpgpuul-----x.svg

<?xml version="1.0" encoding="UTF-8" standalone="no"?>
<!-- SVG content generated using Symbology Configuration Management System (SCMS) -->

<!-- Systematic Software Engineering Ltd. - www.systematic.co.uk - do not remove  -->

<svg
    xmlns:dc="http://purl.org/dc/elements/1.1/"
    xmlns:cc="http://creativecommons.org/ns#"
    xmlns:rdf="http://www.w3.org/1999/02/22-rdf-syntax-ns#"
    xmlns:svg="http://www.w3.org/2000/svg"
    xmlns="http://www.w3.org/2000/svg"
    xmlns:sodipodi="http://sodipodi.sourceforge.net/DTD/sodipodi-0.dtd"
    xmlns:inkscape="http://www.inkscape.org/namespaces/inkscape"
    id="G*GPGPUUL-****X"
    width="291.60001"
    height="324.75"
    viewBox="0 0 291.60001 324.75"
    version="1.1"
    inkscape:version="0.48.2 r9819"
    sodipodi:docname="g-gpgpuul-----x.svg">
    <metadata
        id="metadata14">
        <rdf:RDF>
            <cc:Work
                rdf:about="">
                <dc:format>image/svg+xml</dc:format>
                <dc:type
                    rdf:resource="http://purl.org/dc/dcmitype/StillImage"/>
            </cc:Work>
        </rdf:RDF>
    </metadata>
    <defs
        id="defs12"/>
    <sodipodi:namedview
        pagecolor="#ffffff"
        bordercolor="#666666"
        borderopacity="1"
        objecttolerance="10"
        gridtolerance="10"
        guidetolerance="10"
        inkscape:pageopacity="0"
        inkscape:pageshadow="2"
        inkscape:window-width="640"
        inkscape:window-height="480"
        id="namedview10"
        showgrid="false"
        inkscape:zoom="0.59"
        inkscape:cx="150"
        inkscape:cy="164.75"
        inkscape:window-x="0"
        inkscape:window-y="0"
        inkscape:window-maximized="0"
        inkscape:current-layer="g6"/>
    <g
        id="g3"
        transform="translate(-50,-40)">
        <svg
            viewBox="0 0 400 400"
            id="_0.G-GPGPUUL-----X"
            width="400"
            height="400"
            version="1.1"
            inkscape:version="0.48.2 r9819">
            <g
                transform="matrix(6,0,0,6,50,40)"
                id="g6">
                <path
                    d="M 48.6,39.725 24.061,54.125 0,39.725 z M 7.875,1.25 l 0,-1.25 31.75,0 0,1.25 z m 3.875,27 0,-12.625 1.5,0 0,11.25 6,0 0,1.375 z m 11.875,11.596 0,-39.846 1.125,0 0,39.846 z m 13.041,-16.08 1.674,0.418 c -0.754,2.711 -2.422,4.066 -5,4.066 -2.5,0 -4.188,-1.041 -5.061,-3.127 -0.438,-1.041 -0.654,-2.143 -0.654,-3.307 0,-2.645 0.912,-4.467 2.738,-5.471 0.871,-0.48 1.863,-0.721 2.975,-0.721 2.539,0 4.125,1.193 4.762,3.576 l -1.615,0.363 C 35.965,17.855 34.91,17 33.316,17 c -2.711,0 -4.066,1.605 -4.066,4.816 0,3.373 1.295,5.059 3.887,5.059 1.953,0 3.131,-1.035 3.529,-3.109 z"
                    id="path8"
                    style="fill:#ffffff"
                    inkscape:connector-curvature="0"/>
            </g>
        </svg>
    </g>
</svg>

<?xml version="1.0" encoding="UTF-8" standalone="no"?>
<!-- SVG content generated using Symbology Configuration Management System (SCMS) -->

<!-- Systematic Software Engineering Ltd. - www.systematic.co.uk - do not remove  -->

<svg
   xmlns:dc="http://purl.org/dc/elements/1.1/"
   xmlns:cc="http://creativecommons.org/ns#"
   xmlns:rdf="http://www.w3.org/1999/02/22-rdf-syntax-ns#"
   xmlns:svg="http://www.w3.org/2000/svg"
   xmlns="http://www.w3.org/2000/svg"
   xmlns:sodipodi="http://sodipodi.sourceforge.net/DTD/sodipodi-0.dtd"
   xmlns:inkscape="http://www.inkscape.org/namespaces/inkscape"
   id="G*GPGPUUL-****X"
   width="400px"
   height="400px"
   viewBox="0 0 400 400"
   version="1.1"
   inkscape:version="0.48.2 r9819"
   sodipodi:docname="g-gpgpuul-----x.svg">
  <metadata
     id="metadata14">
    <rdf:RDF>
      <cc:Work
         rdf:about="">
        <dc:format>image/svg+xml</dc:format>
        <dc:type
           rdf:resource="http://purl.org/dc/dcmitype/StillImage" />
      </cc:Work>
    </rdf:RDF>
  </metadata>
  <defs
     id="defs12" />
  <sodipodi:namedview
     pagecolor="#ffffff"
     bordercolor="#666666"
     borderopacity="1"
     objecttolerance="10"
     gridtolerance="10"
     guidetolerance="10"
     inkscape:pageopacity="0"
     inkscape:pageshadow="2"
     inkscape:window-width="640"
     inkscape:window-height="480"
     id="namedview10"
     showgrid="false"
     inkscape:zoom="0.59"
     inkscape:cx="200"
     inkscape:cy="200"
     inkscape:window-x="0"
     inkscape:window-y="0"
     inkscape:window-maximized="0"
     inkscape:current-layer="g6" />
  <g
     id="g3">
    <svg
       viewBox="0 0 400 400"
       id="_0.G-GPGPUUL-----X"
       width="400px"
       height="400px"
       version="1.1">
      <g
         transform="translate(50 40) scale(6 6)"
         id="g6">
        <path
           d="M48.6 39.725 L24.061 54.125 L0 39.725 zM7.875 1.25 L7.875 0 L39.625 0 L39.625 1.25      zM11.75 28.25 L11.75 15.625 L13.25 15.625 L13.25 26.875 L19.25 26.875 L19.25      28.25 zM23.625 39.846 L23.625 0 L24.75 0 L24.75 39.846 zM36.666 23.766 L38.34      24.184 C37.586 26.895 35.918 28.25 33.34 28.25 C30.84 28.25 29.152 27.209      28.279 25.123 C27.841 24.082 27.625 22.98 27.625 21.816 C27.625 19.171 28.537      17.349 30.363 16.345 C31.234 15.865 32.226 15.624 33.338 15.624 C35.877      15.624 37.463 16.817 38.1 19.2 L36.485 19.563 C35.965 17.855 34.91 17 33.316      17 C30.605 17 29.25 18.605 29.25 21.816 C29.25 25.189 30.545 26.875 33.137      26.875 C35.09 26.875 36.268 25.84 36.666 23.766 z"
           id="path8"
           style="fill:#ffffff" />
      </g>
    </svg>
  </g>
</svg>
